images/safePal-uni-icon.svg

<svg width="180" height="268" viewBox="0 0 180 268" fill="none" xmlns="http://www.w3.org/2000/svg">
<g opacity="0.2" filter="url(#filter0_f_7311_99778)">
<path d="M14.269 183.464C11.5377 184.947 11.4805 188.85 14.1563 190.43C56.2208 215.283 81.8326 230.414 124.978 255.905C126.221 256.639 127.778 256.655 129.029 255.933L148.59 244.628C151.262 243.083 151.252 239.221 148.572 237.691L36.3625 173.622C35.1599 172.935 33.6876 172.92 32.4705 173.581L14.269 183.464Z" fill="url(#paint0_linear_7311_99778)"/>
</g>
<path d="M125.101 231.11C127.415 230.142 128.879 227.578 128.879 223.774L128.879 106.195C128.879 99.2581 124.009 90.8232 118.002 87.3548L16.175 28.565C12.5925 26.4967 9.41456 26.6617 7.43268 28.603C7.42596 28.5197 7.45168 28.4269 7.51343 28.3226C7.95051 27.5844 16.4673 23.2116 20.1031 21.3448C20.9453 20.9124 21.5256 20.6145 21.6829 20.5273C22.4667 20.0931 23.3669 19.8627 24.3567 19.8518C26.683 19.8263 29.7283 21.5845 35.8189 25.1009L124.6 76.3587C130.691 79.8751 133.736 81.6333 136.062 84.3451C138.109 86.7305 139.772 89.6121 140.815 92.5769C142 95.9474 142 99.4637 142 106.496V209.012C142 216.045 142 219.562 140.815 221.563C140.277 222.472 138.316 223.817 137.23 224.457C136.316 224.995 127.328 230.21 125.457 231.188C125.229 231.29 125.121 231.256 125.101 231.11Z" fill="#79EFBD" stroke="#0D0B33" stroke-width="1.85"/>
<path d="M138.286 87.3674C137.613 86.3001 136.867 85.2845 136.062 84.3457C133.736 81.6339 130.69 79.8757 124.6 76.3592L54.2642 35.751L41.4512 43.1589L118.002 87.3554C120.843 88.9959 123.43 91.7476 125.368 94.9263L138.286 87.3674Z" fill="#0D0B33"/>
<path d="M142 107.432L128.879 114.73V142.395L142 135.117V107.432Z" fill="#0D0B33"/>
<rect width="142.7" height="142.7" rx="12.56" transform="matrix(0.866025 0.5 -2.20305e-08 1 5.29785 22.2852)" fill="white" stroke="#0D0B33" stroke-width="1.85"/>
<path fill-rule="evenodd" clip-rule="evenodd" d="M21.1738 41.2432L40.7968 77.5056L50.584 95.6509L55.4664 104.732L57.8961 109.274C58.7061 110.791 59.516 112.322 60.3259 113.897L60.5916 114.425L60.6499 115.038C60.7286 115.87 60.6894 116.643 60.5333 117.324C60.3535 118.017 60.0399 118.585 59.61 118.994C58.8097 119.732 57.7504 120.055 56.5387 119.933C55.4485 119.846 54.2942 119.53 53.1142 118.996L52.7255 118.818L52.3367 118.629C51.5893 118.231 50.8707 118.124 50.2859 118.325C49.7012 118.526 49.2811 119.024 49.0873 119.746C48.9985 120.11 48.9325 120.493 48.8897 120.893C48.8218 121.494 48.7868 122.129 48.749 122.817C48.7218 123.31 48.6932 123.83 48.6499 124.383C48.3961 126.592 47.806 128.542 46.9037 130.153C46.7192 130.495 46.5313 130.821 46.3467 131.141C45.3573 132.858 44.4635 134.409 44.7201 137.325C44.921 139.573 45.867 141.548 47.124 143.748C47.721 144.798 48.5126 145.857 49.3343 146.957L49.3344 146.957L49.3344 146.957C51.6343 150.035 54.17 153.429 53.3345 157.808C52.6509 161.353 46.9944 162.22 39.0441 159.074C39.8153 159.385 38.1166 155.057 37.928 154.576L37.9167 154.548C37.6975 154.025 37.473 153.505 37.2488 152.985C36.6016 151.486 35.9575 149.994 35.4545 148.461C34.1263 144.451 33.5107 140.344 34.0549 137.104C34.548 134.172 36.3895 132.666 38.1626 131.216C38.4517 130.979 38.7389 130.744 39.0182 130.505C41.3897 128.474 43.8778 125.455 44.4285 121.358C44.475 121.002 44.5164 120.608 44.5601 120.193L44.5601 120.193C44.6381 119.45 44.7232 118.642 44.8562 117.864C45.0539 116.503 45.4541 115.305 46.0419 114.314C46.4431 113.674 46.9714 113.193 47.6035 112.893C47.933 112.73 48.1505 112.385 48.2209 111.913C48.2914 111.441 48.2109 110.869 47.9922 110.289L35.3184 76.6508L53.5225 113.1C53.7299 113.521 53.9916 113.916 54.29 114.259C54.5881 114.601 54.9153 114.883 55.248 115.083C55.5807 115.283 55.9108 115.398 56.2151 115.418C56.4432 115.433 56.6526 115.394 56.8352 115.305L57.0085 115.199C57.2391 115.022 57.3697 114.704 57.3784 114.301C57.3875 113.897 57.2738 113.431 57.0571 112.983C56.2106 111.245 55.3296 109.47 54.4527 107.703L54.4498 107.698L54.4464 107.691L54.4448 107.688C54.0927 106.978 53.7412 106.27 53.3929 105.566L48.8119 96.3748L39.6175 77.9957L21.1738 41.2432ZM96.8548 163.02C95.0599 160.868 93.3189 158.78 91.8228 156.727C89.682 162.39 93.135 170.21 96.5676 177.985C100.407 186.681 104.222 195.32 100.152 200.816C108.06 201.611 111.815 192.387 108.533 181.455C106.465 174.544 101.481 168.567 96.8548 163.02ZM74.7395 170.458C73.5356 169.197 72.2718 168.09 70.9814 167.166C68.4745 165.365 65.932 164.123 63.5009 163.509C61.1563 162.913 58.9079 162.726 56.8141 162.952C54.7747 163.195 52.8645 163.747 51.1121 164.598C51.2479 164.531 52.0179 165.13 52.4913 165.498C52.639 165.613 52.7578 165.705 52.8195 165.748L53.3862 166.163C53.7637 166.445 54.1402 166.735 54.5139 167.041C55.6283 167.928 56.7149 168.944 57.7536 170.071C59.2594 171.784 60.6224 173.721 61.7773 175.787L62.1327 176.411L62.4754 177.042C63.012 178.168 63.624 179.267 64.3 180.319L64.4031 180.476L64.7287 180.985C65.6721 182.405 66.8025 183.624 68.0008 184.513C68.8542 185.127 69.7205 185.523 70.5343 185.672C70.9357 185.749 71.3196 185.761 71.6779 185.708C72.0395 185.654 72.3667 185.521 72.6498 185.315C73.1828 184.904 73.5385 184.239 73.6801 183.388C73.8262 182.578 73.753 181.612 73.4695 180.6C73.1961 179.616 72.656 178.634 71.963 177.859C72.5591 178.669 72.9748 179.624 73.1228 180.523C73.2602 181.38 73.2074 182.157 72.9706 182.766C72.7558 183.356 72.3761 183.771 71.8723 183.964C71.6322 184.055 71.365 184.088 71.0786 184.064C70.7912 184.033 70.4912 183.955 70.1844 183.832C66.5786 182.449 63.7503 175.875 65.7201 173.484C66.4685 172.566 67.7319 172.596 69.0797 173.179C72.3842 174.623 75.206 178.755 76.855 182.816C77.5648 184.563 78.0918 186.316 78.6186 188.068L78.6187 188.068C78.9479 189.163 79.2771 190.258 79.6509 191.351C81.0764 195.522 83.5126 199.891 86.9597 201.956C88.2323 202.703 89.4899 203.1 90.6335 203.116C91.183 203.14 91.7124 203.106 92.2178 203.013C92.6143 202.935 92.9825 202.805 93.3448 202.678L93.3458 202.677C93.402 202.658 93.4581 202.638 93.5141 202.618L93.5896 202.592L93.6335 202.577C92.5809 202.522 91.4836 202.321 90.3582 201.977C89.8149 201.799 89.2638 201.573 88.7091 201.298L87.9024 200.81C87.6417 200.632 87.3822 200.44 87.1249 200.234C83.0788 197.082 82.5336 192.085 82.0611 187.754C81.9574 186.803 81.8572 185.885 81.7243 185.025C81.4761 183.427 81.0893 181.784 80.571 180.128C79.9966 178.347 79.1847 176.571 78.18 174.898C77.165 173.271 76.0007 171.768 74.7395 170.458ZM89.2207 157.164C88.7785 155.098 87.9562 152.967 86.8269 150.958C87.3718 152.869 87.7071 154.743 87.8214 156.519C87.9203 158.168 87.7327 159.659 87.2707 160.896C86.8197 162.061 86.0824 162.918 85.1195 163.395C84.1246 163.864 82.9729 164.023 81.7211 163.865C79.9813 163.669 78.0139 162.865 75.9647 162.026L75.9644 162.026C75.0296 161.644 74.0778 161.255 73.1228 160.913C71.5866 160.351 70.0824 159.984 68.6326 159.817C67.1993 159.665 65.848 159.771 64.6121 160.133C67.4225 160.579 70.3723 161.61 73.3593 163.189L74.4726 163.765C74.6466 163.856 74.8212 163.947 74.9961 164.039L74.9967 164.039C75.9464 164.537 76.9103 165.042 77.8949 165.516C79.5093 166.322 81.1013 166.863 82.6282 167.127C84.2279 167.404 85.6842 167.197 86.8916 166.521C88.1114 165.807 88.967 164.52 89.3636 162.804C89.7122 161.167 89.6632 159.231 89.2207 157.164ZM80.788 130.286C83.5706 135.324 87.9388 138.565 92.6898 142.091C96.9994 145.288 101.624 148.72 105.666 153.938C115.204 166.246 113.81 178.654 110.571 181.647C110.863 173.815 103.85 166.481 96.5428 158.838C88.2082 150.12 79.4899 141.002 80.788 130.286ZM67.7031 130.61C67.2521 129.483 66.5984 128.403 65.8173 127.495C65.0362 126.587 64.1595 125.887 63.2874 125.476C62.4023 125.074 61.5677 125.014 60.8974 125.303C60.2268 125.591 59.7525 126.215 59.539 127.09C58.8878 129.501 59.5779 132.118 62.9116 133.668L63.0811 133.746C65.3415 134.76 69.7468 135.944 67.7031 130.61ZM64.0451 95.7652C66.5459 98.33 68.8322 101.326 70.774 104.584C72.0421 106.69 73.2327 108.843 74.3377 111.03C82.5666 113.91 89.2404 119.424 94.3689 125.61L94.4856 125.745C96.1181 127.71 97.6478 129.82 99.0471 132.037C99.2706 132.39 99.4909 132.742 99.695 133.088C100.787 134.878 101.804 136.716 102.737 138.585L102.808 138.735C105.838 144.913 107.334 150.382 107.338 153.175L107.318 153.13C107.022 152.323 106.684 151.519 106.307 150.725C105.2 148.353 103.612 146.195 101.807 144.61C100.606 143.559 99.3782 142.627 98.14 141.827C97.2364 141.23 96.3193 140.648 95.3936 140.061C95.0349 139.833 94.6749 139.605 94.3139 139.375C91.7221 137.714 89.0687 135.875 86.477 133.526C85.829 132.938 85.1811 132.332 84.5558 131.691C84.2318 131.369 83.9305 131.049 83.6098 130.707C83.2891 130.365 82.9619 129.996 82.6379 129.618C81.4194 128.144 80.2904 126.546 79.2783 124.862C77.44 121.826 75.9645 118.755 74.5151 115.738C74.463 115.63 74.4109 115.522 74.3589 115.413C74.287 115.264 74.2152 115.115 74.1434 114.965C72.6622 111.744 71.0724 108.554 69.381 105.407C67.7122 102.318 65.7398 99.4004 63.5495 96.7808C61.2817 94.1525 58.8185 91.9181 56.2893 90.195C58.9131 91.3809 61.5671 93.287 64.0451 95.7652ZM62.3278 99.6216C60.9476 96.9843 58.8062 94.7827 56.7069 93.219C56.6284 93.7774 56.5786 94.3568 56.5578 94.9548C56.4639 99.9248 58.0092 106.335 60.9995 111.896C61.9562 113.687 63.1098 115.37 64.3979 116.851C65.1431 117.7 67.1193 119.881 67.8515 119.368C67.9072 119.314 67.9425 119.234 67.9532 119.133C67.9639 119.033 67.9503 118.917 67.913 118.797C67.7918 118.327 67.5574 117.828 67.3247 117.333C67.1596 116.982 66.9954 116.633 66.8731 116.297C66.7493 115.958 66.6168 115.62 66.4845 115.283C66.236 114.65 65.9878 114.017 65.7975 113.375C65.3671 111.932 65.1135 110.527 64.8857 109.129L64.5207 106.873C64.1331 104.534 63.6017 102.056 62.3278 99.6216Z" fill="#333333"/>
<defs>
<filter id="filter0_f_7311_99778" x="10.1846" y="171.096" width="142.403" height="87.3701" filterUnits="userSpaceOnUse" color-interpolation-filters="sRGB">
<feFlood flood-opacity="0" result="BackgroundImageFix"/>
<feBlend mode="normal" in="SourceGraphic" in2="BackgroundImageFix" result="shape"/>
<feGaussianBlur stdDeviation="1" result="effect1_foregroundBlur_7311_99778"/>
</filter>
<linearGradient id="paint0_linear_7311_99778" x1="190.745" y1="218.375" x2="648.745" y2="736.375" gradientUnits="userSpaceOnUse">
<stop stop-color="#3A17CA"/>
<stop offset="1" stop-color="#3A17CA" stop-opacity="0"/>
</linearGradient>
</defs>
</svg>

<svg xmlns="http://www.w3.org/2000/svg" width="180" height="268" fill="none"><g filter="url(#a)" opacity=".2"><path fill="url(#b)" d="M14.269 183.464c-2.731 1.483-2.789 5.386-.113 6.966l110.822 65.475a4.03 4.03 0 0 0 4.051.028l19.561-11.305c2.672-1.545 2.662-5.407-.018-6.937l-112.21-64.069a3.999 3.999 0 0 0-3.892-.041l-18.201 9.883Z"/></g><path fill="#79EFBD" stroke="#0D0B33" stroke-width="1.85" d="M125.101 231.11c2.314-.968 3.778-3.532 3.778-7.336V106.195c0-6.937-4.87-15.372-10.877-18.84L16.175 28.565c-3.583-2.068-6.76-1.903-8.742.038a.48.48 0 0 1 .08-.28c.438-.739 8.954-5.111 12.59-6.978.842-.433 1.423-.73 1.58-.818.784-.434 1.684-.664 2.674-.675 2.326-.026 5.371 1.732 11.462 5.249L124.6 76.359c6.091 3.516 9.136 5.274 11.462 7.986a26.2 26.2 0 0 1 4.753 8.232C142 95.947 142 99.464 142 106.496v102.516c0 7.033 0 10.55-1.185 12.551-.538.909-2.499 2.254-3.585 2.894-.914.538-9.902 5.753-11.773 6.731-.228.102-.336.068-.356-.078Z"/><path fill="#0D0B33" d="M138.286 87.367a25.748 25.748 0 0 0-2.224-3.021c-2.326-2.712-5.372-4.47-11.462-7.987L54.264 35.751l-12.813 7.408 76.551 44.196c2.841 1.64 5.428 4.393 7.366 7.571l12.918-7.559ZM142 107.432l-13.121 7.298v27.665L142 135.117v-27.685Z"/><rect width="142.7" height="142.7" fill="#fff" stroke="#0D0B33" stroke-width="1.85" rx="12.56" transform="matrix(.86603 .5 0 1 5.298 22.285)"/><path fill="#333" fill-rule="evenodd" d="m21.174 41.243 19.623 36.263 9.787 18.145 4.882 9.081 2.43 4.542c.81 1.517 1.62 3.048 2.43 4.623l.266.528.058.613c.079.832.04 1.605-.117 2.286-.18.693-.493 1.261-.923 1.67-.8.738-1.86 1.061-3.071.939-1.09-.087-2.245-.403-3.425-.937l-.389-.178-.388-.189c-.748-.398-1.466-.505-2.051-.304-.585.201-1.005.699-1.199 1.421a8.784 8.784 0 0 0-.197 1.147 34.083 34.083 0 0 0-.141 1.924c-.027.493-.056 1.013-.1 1.566-.253 2.209-.843 4.159-1.745 5.77-.185.342-.373.668-.557.988-.99 1.717-1.883 3.268-1.627 6.184.201 2.248 1.147 4.223 2.404 6.423.597 1.05 1.389 2.109 2.21 3.209 2.3 3.078 4.836 6.472 4 10.851-.683 3.545-6.34 4.412-14.29 1.266.771.311-.927-4.017-1.116-4.498l-.011-.028c-.22-.523-.444-1.043-.668-1.563-.647-1.499-1.291-2.991-1.794-4.524-1.329-4.01-1.944-8.117-1.4-11.357.493-2.932 2.334-4.438 4.108-5.888.289-.237.576-.472.855-.711 2.372-2.031 4.86-5.05 5.41-9.147.047-.356.088-.75.132-1.165.078-.743.163-1.551.296-2.329.198-1.361.598-2.559 1.186-3.55.401-.64.93-1.121 1.561-1.421.33-.163.547-.508.618-.98.07-.472-.01-1.044-.229-1.624L35.318 76.651 53.523 113.1c.207.421.469.816.767 1.159.298.342.625.624.958.824.333.2.663.315.967.335.228.015.438-.024.62-.113l.173-.106c.231-.177.362-.495.37-.898.01-.404-.104-.87-.32-1.318-.847-1.738-1.728-3.513-2.605-5.28l-.003-.005-.004-.007-.001-.003-1.052-2.122-4.581-9.191-9.194-18.38-18.444-36.752Zm75.68 121.777c-1.794-2.152-3.535-4.24-5.031-6.293-2.141 5.663 1.312 13.483 4.745 21.258 3.839 8.696 7.654 17.335 3.584 22.831 7.908.795 11.663-8.429 8.381-19.361-2.068-6.911-7.052-12.888-11.678-18.435Zm-22.114 7.438a26.84 26.84 0 0 0-3.759-3.292c-2.506-1.801-5.049-3.043-7.48-3.657-2.345-.596-4.593-.783-6.687-.557-2.04.243-3.95.795-5.702 1.646.136-.067.906.532 1.38.9.147.115.266.207.328.25l.566.415c.378.282.754.572 1.128.878a28.927 28.927 0 0 1 3.24 3.03 33.32 33.32 0 0 1 4.023 5.716l.356.624.342.631a29.748 29.748 0 0 0 1.825 3.277l.103.157.326.509c.943 1.42 2.073 2.639 3.272 3.528.853.614 1.72 1.01 2.533 1.159.402.077.786.089 1.144.036.362-.054.689-.187.972-.393.533-.411.888-1.076 1.03-1.927.146-.81.073-1.776-.21-2.788a7.05 7.05 0 0 0-1.507-2.741c.596.81 1.012 1.765 1.16 2.664.137.857.084 1.634-.152 2.243-.215.59-.595 1.005-1.099 1.198a1.8 1.8 0 0 1-.793.1 3.391 3.391 0 0 1-.895-.232c-3.605-1.383-6.434-7.957-4.464-10.348.749-.918 2.012-.888 3.36-.305 3.304 1.444 6.126 5.576 7.775 9.637.71 1.747 1.237 3.5 1.764 5.252.329 1.095.658 2.19 1.032 3.283 1.425 4.171 3.862 8.54 7.309 10.605 1.272.747 2.53 1.144 3.674 1.16.549.024 1.078-.01 1.584-.103.396-.078.764-.208 1.127-.335v-.001l.17-.059.075-.026.043-.015a13.67 13.67 0 0 1-3.275-.6 12.432 12.432 0 0 1-1.649-.679l-.807-.488c-.26-.178-.52-.37-.777-.576-4.046-3.152-4.591-8.149-5.064-12.48a62.781 62.781 0 0 0-.337-2.729 33.836 33.836 0 0 0-1.153-4.897 25.347 25.347 0 0 0-2.391-5.23 27.12 27.12 0 0 0-3.44-4.44Zm14.48-13.294c-.442-2.066-1.264-4.197-2.393-6.206.545 1.911.88 3.785.994 5.561.1 1.649-.088 3.14-.55 4.377-.451 1.165-1.189 2.022-2.151 2.499-.995.469-2.147.628-3.399.47-1.74-.196-3.707-1-5.756-1.839-.935-.382-1.887-.771-2.842-1.113-1.536-.562-3.04-.929-4.49-1.096-1.434-.152-2.785-.046-4.02.316 2.81.446 5.76 1.477 8.746 3.056l1.114.576.523.274c.95.498 1.914 1.003 2.899 1.477 1.614.806 3.206 1.347 4.733 1.611 1.6.277 3.056.07 4.264-.606 1.22-.714 2.075-2.001 2.472-3.717.348-1.637.3-3.573-.143-5.64Zm-8.432-26.878c2.783 5.038 7.15 8.279 11.902 11.805 4.31 3.197 8.934 6.629 12.976 11.847 9.538 12.308 8.144 24.716 4.905 27.709.292-7.832-6.721-15.166-14.028-22.809-8.335-8.718-17.053-17.836-15.755-28.552Zm-13.085.324a11.24 11.24 0 0 0-1.886-3.115c-.78-.908-1.657-1.608-2.53-2.019-.885-.402-1.72-.462-2.39-.173-.67.288-1.145.912-1.358 1.787-.651 2.411.039 5.028 3.373 6.578l.17.078c2.26 1.014 6.665 2.198 4.621-3.136Zm-3.658-34.845c2.5 2.565 4.787 5.561 6.729 8.819a99.433 99.433 0 0 1 3.564 6.446c8.229 2.88 14.902 8.394 20.03 14.58l.118.135a59.85 59.85 0 0 1 5.209 7.343 74.211 74.211 0 0 1 3.042 5.497l.071.15c3.03 6.178 4.526 11.647 4.53 14.44l-.02-.045a28.477 28.477 0 0 0-1.011-2.405c-1.107-2.372-2.695-4.53-4.5-6.115a31.788 31.788 0 0 0-3.667-2.783c-.904-.597-1.82-1.179-2.746-1.766-.36-.228-.72-.456-1.08-.686-2.592-1.661-5.245-3.5-7.837-5.849a43.574 43.574 0 0 1-1.921-1.835 38.244 38.244 0 0 1-1.918-2.073 39.06 39.06 0 0 1-3.36-4.756c-1.838-3.036-3.314-6.107-4.763-9.124a157.337 157.337 0 0 1-.372-.773 171.931 171.931 0 0 0-4.762-9.558 52.132 52.132 0 0 0-5.831-8.626c-2.268-2.629-4.731-4.863-7.26-6.586 2.623 1.186 5.277 3.092 7.755 5.57Zm-1.717 3.857c-1.38-2.638-3.522-4.84-5.621-6.403a16.627 16.627 0 0 0-.15 1.736c-.093 4.97 1.452 11.38 4.442 16.941a26.905 26.905 0 0 0 3.399 4.955c.745.849 2.721 3.03 3.454 2.517a.374.374 0 0 0 .101-.235.849.849 0 0 0-.04-.336c-.121-.47-.356-.969-.588-1.464-.165-.351-.33-.7-.452-1.036a45.428 45.428 0 0 0-.389-1.014c-.248-.633-.496-1.266-.686-1.908-.43-1.443-.684-2.848-.912-4.246l-.365-2.256c-.388-2.339-.92-4.817-2.193-7.251Z" clip-rule="evenodd"/><defs><linearGradient id="b" x1="190.745" x2="648.745" y1="218.375" y2="736.375" gradientUnits="userSpaceOnUse"><stop stop-color="#3A17CA"/><stop offset="1" stop-color="#3A17CA" stop-opacity="0"/></linearGradient><filter id="a" width="142.403" height="87.37" x="10.185" y="171.096" color-interpolation-filters="sRGB" filterUnits="userSpaceOnUse"><feFlood flood-opacity="0" result="BackgroundImageFix"/><feBlend in="SourceGraphic" in2="BackgroundImageFix" result="shape"/><feGaussianBlur result="effect1_foregroundBlur_7311_99778" stdDeviation="1"/></filter></defs></svg>
